img/enterprises/brand3.svg

<svg width="210" height="79" viewBox="0 0 210 79" fill="none" xmlns="http://www.w3.org/2000/svg">
<path d="M71.0682 30.5349C72.6558 30.5349 74.0297 30.7904 75.1905 31.3015C76.3681 31.8125 77.2721 32.5379 77.9037 33.4776C78.5353 34.4173 78.8513 35.5301 78.8513 36.8161C78.8513 38.0855 78.5353 39.1982 77.9037 40.1545C77.2721 41.0942 76.3681 41.8196 75.1905 42.3308C74.0297 42.8252 72.6558 43.0725 71.0682 43.0725H67.4588V47.8454H63.3119V30.5349H71.0682ZM70.8382 39.8082C72.0835 39.8082 73.0312 39.5527 73.6795 39.0416C74.3284 38.5141 74.6524 37.7722 74.6524 36.8161C74.6524 35.8433 74.3284 35.1015 73.6795 34.5904C73.0312 34.0629 72.0835 33.7991 70.8382 33.7991H67.4588V39.8082H70.8382Z" fill="#81818B"/>
<path d="M84.0651 36.2967C84.5423 35.6537 85.1828 35.1674 85.9845 34.8377C86.804 34.5079 87.7422 34.3431 88.8006 34.3431V37.9041C88.357 37.8711 88.0582 37.8547 87.9044 37.8547C86.761 37.8547 85.8653 38.1679 85.2169 38.7944C84.568 39.4043 84.2436 40.3276 84.2436 41.5639V47.8454H80.2505V34.541H84.0651V36.2967Z" fill="#81818B"/>
<path d="M96.3239 48.0429C94.8733 48.0429 93.5676 47.7547 92.4074 47.1774C91.2639 46.5841 90.3677 45.7678 89.7194 44.7292C89.071 43.6906 88.7465 42.5118 88.7465 41.1931C88.7465 39.8742 89.071 38.6954 89.7194 37.6568C90.3677 36.6182 91.2639 35.8104 92.4074 35.2334C93.5676 34.6399 94.8733 34.3431 96.3239 34.3431C97.7744 34.3431 99.0717 34.6399 100.215 35.2334C101.359 35.8104 102.255 36.6182 102.904 37.6568C103.552 38.6954 103.876 39.8742 103.876 41.1931C103.876 42.5118 103.552 43.6906 102.904 44.7292C102.255 45.7678 101.359 46.5841 100.215 47.1774C99.0717 47.7547 97.7744 48.0429 96.3239 48.0429ZM96.3239 44.8776C97.3481 44.8776 98.1845 44.5482 98.8328 43.8885C99.4985 43.2127 99.8309 42.3143 99.8309 41.1931C99.8309 40.072 99.4985 39.1818 98.8328 38.5223C98.1845 37.8464 97.3481 37.5084 96.3239 37.5084C95.3001 37.5084 94.4554 37.8464 93.7897 38.5223C93.124 39.1818 92.7911 40.072 92.7911 41.1931C92.7911 42.3143 93.124 43.2127 93.7897 43.8885C94.4554 44.5482 95.3001 44.8776 96.3239 44.8776Z" fill="#81818B"/>
<path d="M121.983 30.5349V47.8454H118.578L109.643 37.3353V47.8454H105.547V30.5349H108.977L117.887 41.0447V30.5349H121.983Z" fill="#81818B"/>
<path d="M130.216 34.3431C132.349 34.3431 133.988 34.8377 135.131 35.8269C136.275 36.7996 136.846 38.2751 136.846 40.2534V47.8454H133.109V46.1883C132.358 47.4248 130.959 48.0429 128.911 48.0429C127.852 48.0429 126.93 47.8701 126.145 47.5238C125.378 47.1774 124.789 46.6996 124.379 46.0894C123.97 45.4795 123.765 44.7869 123.765 44.0122C123.765 42.7757 124.243 41.8031 125.198 41.0942C126.171 40.3853 127.665 40.0308 129.679 40.0308H132.853C132.853 39.19 132.589 38.5471 132.059 38.1019C131.53 37.6403 130.737 37.4095 129.679 37.4095C128.945 37.4095 128.219 37.5249 127.503 37.7557C126.803 37.9701 126.205 38.2668 125.71 38.646L124.277 35.9505C125.028 35.4394 125.923 35.0438 126.964 34.7635C128.023 34.4833 129.107 34.3431 130.216 34.3431ZM129.909 45.4466C130.592 45.4466 131.197 45.2982 131.726 45.0013C132.255 44.6879 132.631 44.2348 132.853 43.6411V42.2813H130.114C128.475 42.2813 127.656 42.8004 127.656 43.839C127.656 44.3338 127.852 44.7292 128.245 45.0261C128.654 45.3064 129.209 45.4466 129.909 45.4466Z" fill="#81818B"/>
<path d="M148.064 47.2021C147.672 47.4825 147.185 47.6969 146.605 47.8453C146.042 47.9768 145.444 48.0428 144.813 48.0428C143.175 48.0428 141.903 47.6392 140.999 46.8315C140.111 46.0234 139.667 44.8363 139.667 43.2704V37.8052H137.543V34.8377H139.667V31.5981H143.661V34.8377H147.091V37.8052H143.661V43.2209C143.661 43.7812 143.806 44.2183 144.096 44.5316C144.403 44.8281 144.83 44.9765 145.376 44.9765C146.008 44.9765 146.545 44.8116 146.989 44.4822L148.064 47.2021Z" fill="#81818B"/>
<path d="M162.902 34.541V47.8453H159.113V46.2625C158.584 46.8393 157.952 47.2846 157.218 47.598C156.484 47.8949 155.691 48.0429 154.837 48.0429C153.028 48.0429 151.595 47.5403 150.536 46.5346C149.478 45.529 148.949 44.0369 148.949 42.0587V34.541H152.943V41.4897C152.943 43.6329 153.873 44.7044 155.733 44.7044C156.689 44.7044 157.457 44.408 158.038 43.8142C158.617 43.2045 158.908 42.3061 158.908 41.1189V34.541H162.902Z" fill="#81818B"/>
<path d="M169.136 36.2967C169.613 35.6537 170.254 35.1674 171.056 34.8377C171.875 34.5079 172.814 34.3431 173.872 34.3431V37.9041C173.428 37.8711 173.129 37.8547 172.976 37.8547C171.832 37.8547 170.936 38.1679 170.288 38.7944C169.639 39.4043 169.315 40.3276 169.315 41.5639V47.8454H165.321V34.541H169.136V36.2967Z" fill="#81818B"/>
<path d="M188.333 41.2427C188.333 41.2918 188.308 41.6381 188.256 42.2813H177.837C178.024 43.1055 178.468 43.7565 179.168 44.2348C179.868 44.7127 180.738 44.9518 181.779 44.9518C182.496 44.9518 183.127 44.8529 183.673 44.655C184.237 44.441 184.757 44.1111 185.235 43.6658L187.36 45.8915C186.063 47.3259 184.168 48.0429 181.676 48.0429C180.124 48.0429 178.75 47.7547 177.555 47.1774C176.36 46.5841 175.439 45.7678 174.79 44.7292C174.141 43.6906 173.818 42.5118 173.818 41.1931C173.818 39.8907 174.133 38.7202 174.765 37.6816C175.413 36.6264 176.292 35.8104 177.401 35.2334C178.528 34.6399 179.782 34.3431 181.165 34.3431C182.513 34.3431 183.733 34.6234 184.826 35.1839C185.918 35.7444 186.771 36.5522 187.386 37.6074C188.017 38.646 188.333 39.8577 188.333 41.2427ZM181.19 37.2611C180.286 37.2611 179.526 37.5084 178.912 38.003C178.297 38.4976 177.922 39.1736 177.785 40.0308H184.57C184.433 39.19 184.057 38.5223 183.443 38.0277C182.829 37.5167 182.078 37.2611 181.19 37.2611Z" fill="#81818B"/>
<path fill-rule="evenodd" clip-rule="evenodd" d="M40.568 20.8946C39.9595 20.5545 39.2093 20.5545 38.6008 20.8946C34.2788 23.3096 31.3637 27.8282 31.3637 33.0068C31.3637 33.7449 31.423 34.4695 31.537 35.1767C28.5618 34.2006 25.3403 34.5558 22.709 36.0204C22.0999 36.3594 21.7248 36.987 21.7254 37.6661C21.7285 41.2485 23.655 44.7399 27.1053 46.6641C28.798 47.6083 30.6456 48.0569 32.4679 48.0577C32.1907 48.8167 32.0398 49.6331 32.0398 50.4837C32.0398 54.5086 35.4175 57.771 39.5841 57.771C43.7509 57.771 47.1284 54.5086 47.1284 50.4837C47.1284 49.631 46.9768 48.813 46.6985 48.0528C48.4123 48.0004 50.1384 47.551 51.7279 46.6641C55.1785 44.7399 57.1048 41.2485 57.1074 37.6662C57.1084 36.9872 56.7331 36.3596 56.1241 36.0205C53.5967 34.6136 50.5242 34.2305 47.6491 35.0677C47.7519 34.3951 47.8049 33.707 47.8049 33.0068C47.8049 27.8282 44.8901 23.3096 40.568 20.8946ZM35.2924 33.0068C35.2924 29.644 36.9781 26.6597 39.5844 24.8021C42.1907 26.6597 43.8763 29.644 43.8763 33.0068C43.8763 36.3696 42.1907 39.3539 39.5844 41.2115C36.9781 39.3539 35.2924 36.3696 35.2924 33.0068ZM47.3315 39.3087C49.1456 38.297 51.2417 38.1793 53.0728 38.8195C52.7315 40.6714 51.5776 42.3659 49.7636 43.3776C47.9496 44.3894 45.8534 44.5069 44.0223 43.867C44.3638 42.0149 45.5175 40.3205 47.3315 39.3087ZM25.7605 38.8194C27.5915 38.1792 29.6876 38.2969 31.5016 39.3086C33.3158 40.3203 34.4693 42.0149 34.8109 43.8666C32.9798 44.5069 30.8838 44.3894 29.0697 43.3776C27.2556 42.3659 26.1021 40.6712 25.7605 38.8194ZM35.9685 50.4837C35.9685 48.5549 37.5873 46.9911 39.5841 46.9911C41.5809 46.9911 43.1998 48.5549 43.1998 50.4837C43.1998 52.4124 41.5809 53.9763 39.5841 53.9763C37.5873 53.9763 35.9685 52.4124 35.9685 50.4837Z" fill="#81818B"/>
</svg>

<svg xmlns="http://www.w3.org/2000/svg" width="210" height="79" fill="none"><path fill="#81818B" d="M71.068 30.535c1.588 0 2.962.255 4.123.767 1.177.51 2.081 1.236 2.713 2.176.631.94.947 2.052.947 3.338 0 1.27-.316 2.382-.947 3.338-.632.94-1.536 1.666-2.713 2.177-1.161.494-2.535.741-4.123.741h-3.61v4.773h-4.146v-17.31h7.756Zm-.23 9.273c1.246 0 2.193-.255 2.842-.766.648-.528.972-1.27.972-2.226 0-.973-.324-1.715-.972-2.226-.649-.527-1.597-.79-2.842-.79h-3.38v6.008h3.38ZM84.065 36.297c.477-.643 1.118-1.13 1.92-1.46.819-.33 1.757-.494 2.816-.494v3.561c-.444-.033-.743-.05-.897-.05-1.143 0-2.039.314-2.687.94-.649.61-.973 1.534-.973 2.77v6.281H80.25V34.541h3.814v1.756ZM96.324 48.043c-1.45 0-2.756-.288-3.917-.866-1.143-.593-2.04-1.41-2.688-2.448-.648-1.038-.972-2.217-.972-3.536s.324-2.498.972-3.536c.649-1.039 1.545-1.847 2.688-2.424 1.16-.593 2.466-.89 3.917-.89 1.45 0 2.748.297 3.891.89 1.144.577 2.04 1.385 2.689 2.424.648 1.038.972 2.217.972 3.536s-.324 2.498-.972 3.536c-.649 1.039-1.545 1.855-2.689 2.448-1.143.578-2.44.866-3.891.866Zm0-3.165c1.024 0 1.86-.33 2.509-.99.666-.675.998-1.574.998-2.695 0-1.121-.332-2.011-.998-2.67-.648-.677-1.485-1.015-2.51-1.015-1.023 0-1.868.338-2.533 1.014-.666.66-.999 1.55-.999 2.671 0 1.121.333 2.02.999 2.696.665.66 1.51.989 2.534.989ZM121.983 30.535v17.31h-3.405l-8.935-10.51v10.51h-4.096v-17.31h3.43l8.91 10.51v-10.51h4.096ZM130.216 34.343c2.133 0 3.772.495 4.915 1.484 1.144.973 1.715 2.448 1.715 4.426v7.592h-3.737v-1.657c-.751 1.237-2.15 1.855-4.198 1.855-1.059 0-1.981-.173-2.766-.52-.767-.346-1.356-.823-1.766-1.434a3.645 3.645 0 0 1-.614-2.077c0-1.236.478-2.209 1.433-2.918.973-.709 2.467-1.063 4.481-1.063h3.174c0-.841-.264-1.484-.794-1.93-.529-.46-1.322-.691-2.38-.691-.734 0-1.46.115-2.176.346-.7.214-1.298.51-1.793.89l-1.433-2.696c.751-.51 1.646-.906 2.687-1.187a12.66 12.66 0 0 1 3.252-.42Zm-.307 11.104c.683 0 1.288-.149 1.817-.446a2.583 2.583 0 0 0 1.127-1.36v-1.36h-2.739c-1.639 0-2.458.52-2.458 1.558 0 .495.196.89.589 1.187.409.28.964.42 1.664.42ZM148.064 47.202c-.392.28-.879.495-1.459.643a7.864 7.864 0 0 1-1.792.198c-1.638 0-2.91-.404-3.814-1.212-.888-.808-1.332-1.995-1.332-3.56v-5.466h-2.124v-2.967h2.124v-3.24h3.994v3.24h3.43v2.967h-3.43v5.416c0 .56.145.997.435 1.31.307.297.734.446 1.28.446.632 0 1.169-.165 1.613-.495l1.075 2.72ZM162.902 34.541v13.304h-3.789v-1.582a5.436 5.436 0 0 1-1.895 1.335 6.287 6.287 0 0 1-2.381.445c-1.809 0-3.242-.503-4.301-1.508-1.058-1.006-1.587-2.498-1.587-4.476V34.54h3.994v6.949c0 2.143.93 3.214 2.79 3.214.956 0 1.724-.296 2.305-.89.579-.61.87-1.508.87-2.695V34.54h3.994ZM169.136 36.297c.477-.643 1.118-1.13 1.92-1.46.819-.33 1.758-.494 2.816-.494v3.561c-.444-.033-.743-.05-.896-.05-1.144 0-2.04.314-2.688.94-.649.61-.973 1.534-.973 2.77v6.281h-3.994V34.541h3.815v1.756ZM188.333 41.243c0 .049-.025.395-.077 1.038h-10.419a3.126 3.126 0 0 0 1.331 1.954c.7.478 1.57.717 2.611.717.717 0 1.348-.1 1.894-.297a4.763 4.763 0 0 0 1.562-.99l2.125 2.227c-1.297 1.434-3.192 2.15-5.684 2.15-1.552 0-2.926-.287-4.121-.865-1.195-.593-2.116-1.41-2.765-2.448s-.972-2.217-.972-3.536c0-1.302.315-2.473.947-3.511a6.62 6.62 0 0 1 2.636-2.449c1.127-.593 2.381-.89 3.764-.89 1.348 0 2.568.28 3.661.84a6.157 6.157 0 0 1 2.56 2.424c.631 1.039.947 2.25.947 3.636Zm-7.143-3.982c-.904 0-1.664.247-2.278.742-.615.495-.99 1.17-1.127 2.028h6.785c-.137-.841-.513-1.509-1.127-2.003-.614-.511-1.365-.767-2.253-.767Z"/><path fill="#81818B" fill-rule="evenodd" d="M40.568 20.895a2.024 2.024 0 0 0-1.967 0c-4.322 2.415-7.237 6.933-7.237 12.112 0 .738.059 1.462.173 2.17a11.107 11.107 0 0 0-8.828.843c-.61.34-.984.967-.984 1.646.003 3.583 1.93 7.074 5.38 8.998a10.996 10.996 0 0 0 5.363 1.394 7.055 7.055 0 0 0-.428 2.426c0 4.025 3.377 7.287 7.544 7.287s7.544-3.262 7.544-7.287c0-.853-.151-1.671-.43-2.431a10.99 10.99 0 0 0 5.03-1.389c3.45-1.924 5.377-5.416 5.38-8.998a1.886 1.886 0 0 0-.984-1.645 11.11 11.11 0 0 0-8.475-.953c.103-.673.156-1.361.156-2.061 0-5.179-2.915-9.697-7.237-12.112Zm-5.276 12.112c0-3.363 1.686-6.347 4.292-8.205 2.607 1.858 4.292 4.842 4.292 8.205 0 3.363-1.685 6.347-4.292 8.205-2.606-1.858-4.292-4.842-4.292-8.205Zm12.04 6.302a7.025 7.025 0 0 1 5.74-.49c-.34 1.852-1.494 3.547-3.308 4.559a7.026 7.026 0 0 1-5.742.489c.342-1.852 1.495-3.546 3.31-4.558Zm-21.572-.49a7.025 7.025 0 0 1 5.742.49c1.814 1.011 2.967 2.706 3.309 4.558a7.024 7.024 0 0 1-5.741-.49c-1.814-1.011-2.968-2.706-3.31-4.558Zm10.208 11.665c0-1.93 1.62-3.493 3.616-3.493 1.997 0 3.616 1.564 3.616 3.493 0 1.928-1.62 3.492-3.616 3.492-1.997 0-3.616-1.564-3.616-3.492Z" clip-rule="evenodd"/></svg>
